Numix-Light/24x24/status/diodon-panel.svg

<?xml version="1.0" encoding="UTF-8" standalone="no"?>
<svg
   xmlns:dc="http://purl.org/dc/elements/1.1/"
   xmlns:cc="http://creativecommons.org/ns#"
   xmlns:rdf="http://www.w3.org/1999/02/22-rdf-syntax-ns#"
   xmlns:svg="http://www.w3.org/2000/svg"
   xmlns="http://www.w3.org/2000/svg"
   xmlns:sodipodi="http://sodipodi.sourceforge.net/DTD/sodipodi-0.dtd"
   xmlns:inkscape="http://www.inkscape.org/namespaces/inkscape"
   width="24"
   height="24"
   viewBox="0 0 24 24"
   id="svg2"
   version="1.1"
   inkscape:version="0.48.5 r10040"
   sodipodi:docname="diodon-panel.svg">
  <metadata
     id="metadata14">
    <rdf:RDF>
      <cc:Work
         rdf:about="">
        <dc:format>image/svg+xml</dc:format>
        <dc:type
           rdf:resource="http://purl.org/dc/dcmitype/StillImage" />
      </cc:Work>
    </rdf:RDF>
  </metadata>
  <defs
     id="defs12" />
  <sodipodi:namedview
     pagecolor="#ffffff"
     bordercolor="#666666"
     borderopacity="1"
     objecttolerance="10"
     gridtolerance="10"
     guidetolerance="10"
     inkscape:pageopacity="0"
     inkscape:pageshadow="2"
     inkscape:window-width="1280"
     inkscape:window-height="998"
     id="namedview10"
     showgrid="false"
     inkscape:zoom="19.666667"
     inkscape:cx="11.749846"
     inkscape:cy="7.8534302"
     inkscape:window-x="0"
     inkscape:window-y="0"
     inkscape:window-maximized="1"
     inkscape:current-layer="svg2" />
  <path
     style="fill:#353535;fill-opacity:1"
     inkscape:connector-curvature="0"
     id="path8"
     d="m 20.726562,17.585938 c 0,0.890624 -0.328124,1.636718 -0.984374,2.238281 -0.65625,0.601562 -1.472657,0.902343 -2.445313,0.902343 -1.121094,0 -2.097656,-0.378906 -2.929687,-1.140624 L 4.679688,10.71875 C 3.742188,9.84375 3.273438,8.8125 3.273438,7.625 c 0,-1.210938 0.457031,-2.238281 1.371093,-3.085938 0.914063,-0.84375 2.03125,-1.265624 3.351563,-1.265624 1.316406,0 2.449218,0.429687 3.40625,1.289062 l 7.542968,6.921875 c 0.08203,0.07813 0.125,0.160156 0.125,0.253906 0,0.121094 -0.128906,0.296875 -0.382812,0.53125 -0.253906,0.230469 -0.445312,0.347657 -0.578125,0.347657 -0.109375,0 -0.203125,-0.03906 -0.285156,-0.113282 L 10.265625,5.570312 C 9.609375,4.984375 8.859375,4.6875 8.011719,4.6875 c -0.882813,0 -1.625,0.289062 -2.234375,0.859375 -0.605469,0.570313 -0.910156,1.257813 -0.910156,2.066406 0,0.800781 0.316406,1.488281 0.949218,2.066407 l 9.675782,8.878906 c 0.523437,0.476562 1.125,0.71875 1.804687,0.71875 0.535156,0 0.972656,-0.160156 1.324219,-0.480469 0.347656,-0.320313 0.523437,-0.722656 0.523437,-1.210937 0,-0.625 -0.261719,-1.175782 -0.785156,-1.65625 L 11.113281,9.292969 C 10.898438,9.109375 10.648438,9.019531 10.367188,9.019531 10.125,9.019531 9.925781,9.089844 9.769531,9.234375 9.609375,9.378906 9.53125,9.5625 9.53125,9.785156 c 0,0.242188 0.105469,0.46875 0.3125,0.671875 l 5.109375,4.683594 c 0.08594,0.07813 0.125,0.160156 0.125,0.253906 0,0.121094 -0.128906,0.300781 -0.386719,0.535157 -0.257812,0.234374 -0.453125,0.355468 -0.585937,0.355468 -0.09766,0 -0.191407,-0.03906 -0.273438,-0.117187 L 8.722656,11.484375 C 8.199219,11.023438 7.9375,10.453125 7.9375,9.785156 c 0,-0.625 0.234375,-1.15625 0.707031,-1.589844 0.476563,-0.433593 1.054688,-0.648437 1.734375,-0.648437 0.730469,0 1.351563,0.238281 1.859375,0.71875 l 7.242188,6.636719 c 0.832031,0.746094 1.246093,1.640625 1.246093,2.683594 z" />
</svg>

<svg xmlns="http://www.w3.org/2000/svg" width="24" height="24" viewBox="0 0 24 24">
 <g>
  <path d="M 20.726562 18.675781 C 20.726562 19.566406 20.398438 20.3125 19.742188 20.914062 C 19.085938 21.515625 18.269531 21.816406 17.296875 21.816406 C 16.175781 21.816406 15.199219 21.4375 14.367188 20.675781 L 4.679688 11.8125 C 3.742188 10.9375 3.273438 9.902344 3.273438 8.714844 C 3.273438 7.503906 3.730469 6.476562 4.644531 5.632812 C 5.558594 4.785156 6.675781 4.363281 7.996094 4.363281 C 9.3125 4.363281 10.445312 4.792969 11.402344 5.65625 L 18.945312 12.578125 C 19.027344 12.652344 19.070312 12.738281 19.070312 12.828125 C 19.070312 12.949219 18.941406 13.128906 18.6875 13.359375 C 18.433594 13.589844 18.242188 13.707031 18.109375 13.707031 C 18 13.707031 17.90625 13.667969 17.824219 13.59375 L 10.265625 6.660156 C 9.609375 6.074219 8.859375 5.78125 8.011719 5.78125 C 7.128906 5.78125 6.386719 6.066406 5.777344 6.636719 C 5.171875 7.207031 4.867188 7.898438 4.867188 8.703125 C 4.867188 9.503906 5.183594 10.191406 5.816406 10.773438 L 15.492188 19.648438 C 16.015625 20.128906 16.617188 20.367188 17.296875 20.367188 C 17.832031 20.367188 18.269531 20.207031 18.621094 19.886719 C 18.96875 19.566406 19.144531 19.164062 19.144531 18.675781 C 19.144531 18.050781 18.882812 17.5 18.359375 17.019531 L 11.113281 10.382812 C 10.898438 10.199219 10.648438 10.109375 10.367188 10.109375 C 10.125 10.109375 9.925781 10.183594 9.769531 10.328125 C 9.609375 10.472656 9.53125 10.652344 9.53125 10.875 C 9.53125 11.117188 9.636719 11.34375 9.84375 11.550781 L 14.953125 16.234375 C 15.039062 16.308594 15.078125 16.390625 15.078125 16.484375 C 15.078125 16.605469 14.949219 16.785156 14.691406 17.019531 C 14.433594 17.257812 14.238281 17.375 14.105469 17.375 C 14.007812 17.375 13.914062 17.335938 13.832031 17.261719 L 8.722656 12.578125 C 8.199219 12.113281 7.9375 11.546875 7.9375 10.875 C 7.9375 10.25 8.171875 9.722656 8.644531 9.289062 C 9.121094 8.851562 9.699219 8.636719 10.378906 8.636719 C 11.109375 8.636719 11.730469 8.875 12.238281 9.355469 L 19.480469 15.992188 C 20.3125 16.738281 20.726562 17.632812 20.726562 18.675781 Z " fill-opacity="0.282"/>
  <path d="M 20.726562 17.585938 C 20.726562 18.476562 20.398438 19.222656 19.742188 19.824219 C 19.085938 20.425781 18.269531 20.726562 17.296875 20.726562 C 16.175781 20.726562 15.199219 20.347656 14.367188 19.585938 L 4.679688 10.71875 C 3.742188 9.84375 3.273438 8.8125 3.273438 7.625 C 3.273438 6.414062 3.730469 5.386719 4.644531 4.539062 C 5.558594 3.695312 6.675781 3.273438 7.996094 3.273438 C 9.3125 3.273438 10.445312 3.703125 11.402344 4.5625 L 18.945312 11.484375 C 19.027344 11.5625 19.070312 11.644531 19.070312 11.738281 C 19.070312 11.859375 18.941406 12.035156 18.6875 12.269531 C 18.433594 12.5 18.242188 12.617188 18.109375 12.617188 C 18 12.617188 17.90625 12.578125 17.824219 12.503906 L 10.265625 5.570312 C 9.609375 4.984375 8.859375 4.6875 8.011719 4.6875 C 7.128906 4.6875 6.386719 4.976562 5.777344 5.546875 C 5.171875 6.117188 4.867188 6.804688 4.867188 7.613281 C 4.867188 8.414062 5.183594 9.101562 5.816406 9.679688 L 15.492188 18.558594 C 16.015625 19.035156 16.617188 19.277344 17.296875 19.277344 C 17.832031 19.277344 18.269531 19.117188 18.621094 18.796875 C 18.96875 18.476562 19.144531 18.074219 19.144531 17.585938 C 19.144531 16.960938 18.882812 16.410156 18.359375 15.929688 L 11.113281 9.292969 C 10.898438 9.109375 10.648438 9.019531 10.367188 9.019531 C 10.125 9.019531 9.925781 9.089844 9.769531 9.234375 C 9.609375 9.378906 9.53125 9.5625 9.53125 9.785156 C 9.53125 10.027344 9.636719 10.253906 9.84375 10.457031 L 14.953125 15.140625 C 15.039062 15.21875 15.078125 15.300781 15.078125 15.394531 C 15.078125 15.515625 14.949219 15.695312 14.691406 15.929688 C 14.433594 16.164062 14.238281 16.285156 14.105469 16.285156 C 14.007812 16.285156 13.914062 16.246094 13.832031 16.167969 L 8.722656 11.484375 C 8.199219 11.023438 7.9375 10.453125 7.9375 9.785156 C 7.9375 9.160156 8.171875 8.628906 8.644531 8.195312 C 9.121094 7.761719 9.699219 7.546875 10.378906 7.546875 C 11.109375 7.546875 11.730469 7.785156 12.238281 8.265625 L 19.480469 14.902344 C 20.3125 15.648438 20.726562 16.542969 20.726562 17.585938 Z " fill="#353535"/>
 </g>
</svg>
